packages/foundations/assets/icons/functional/images/maps/navigation_u_turn_16.svg

<svg width="16" height="16" viewBox="0 0 16 16" fill="none" xmlns="http://www.w3.org/2000/svg">
<g clip-path="url(#clip0_2213_5436)">
<path fill-rule="evenodd" clip-rule="evenodd" d="M6.76066 1.47815C8.78044 1.47815 10.4178 3.11551 10.4178 5.13529V11.7799L11.4956 10.7011C11.6714 10.5394 11.8689 10.4585 12.0884 10.4585C12.5194 10.4585 12.8965 10.809 12.8965 11.2673C12.8965 11.483 12.8157 11.6987 12.6541 11.8335L10.2115 14.2793C10.0768 14.4411 9.86126 14.522 9.64574 14.522C9.45718 14.522 9.24166 14.4411 9.07997 14.2793L6.63734 11.8335C6.5027 11.6987 6.39494 11.483 6.39494 11.2673C6.39494 10.809 6.77207 10.4585 7.20311 10.4585C7.41863 10.4585 7.63415 10.5393 7.79583 10.7011L8.79241 11.6995V5.13529C8.79241 4.01319 7.88276 3.10355 6.76066 3.10355C5.63856 3.10355 4.72891 4.01319 4.72891 5.13529V8.58926C4.72891 9.0381 4.36506 9.40196 3.91621 9.40196C3.46737 9.40196 3.10352 9.0381 3.10352 8.58926V5.13529C3.10352 3.11551 4.74087 1.47815 6.76066 1.47815Z" fill="#1A1C1F"/>
</g>
<defs>
<clipPath id="clip0_2213_5436">
<rect width="16" height="16" fill="white"/>
</clipPath>
</defs>
</svg>

<svg xmlns="http://www.w3.org/2000/svg" width="16" height="16" fill="none"><g clip-path="url(#a)"><path fill="#1A1C1F" fill-rule="evenodd" d="M6.76 1.478a3.657 3.657 0 0 1 3.658 3.657v6.645l1.078-1.079a.85.85 0 0 1 .592-.242.81.81 0 0 1 .809.808c0 .216-.081.432-.243.567l-2.443 2.445a.73.73 0 0 1-.565.243.82.82 0 0 1-.566-.243l-2.443-2.445a.84.84 0 0 1-.242-.567.81.81 0 0 1 .808-.808c.216 0 .431.08.593.242l.996.999V5.135a2.032 2.032 0 0 0-4.063 0V8.59a.813.813 0 1 1-1.625 0V5.135A3.657 3.657 0 0 1 6.76 1.478" clip-rule="evenodd"/></g><defs><clipPath id="a"><path fill="#fff" d="M0 0h16v16H0z"/></clipPath></defs></svg>
